X:87
T:Reels simple chords 1
M:3/4
L:1/8
K:Em
ef [g2G,2B,2D2] ga | g2 dc [BG,B,D]G | AG [AD,F,A,]G FE | DF Ac Be | f[g2G,2B,2D2G,2B,2D2]g ag |
ed c[BG,B,D] GA | G[AD,F,A,] GF ED | FA cB ef | [g2G,2B,2D2G,2B,2D2G,2B,2D2] ga g2 |
dc [BG,B,D]G AG | [AD,F,A,]G FE DF | Ac Be f[g2G,2B,2D2G,2B,2D2] |g ag ed |
c[BG,B,D] GA G[AD,F,A,] | GF ED FA | cB ef [g2G,2B,2D2G,2B,2D2] | ga ge de |
[gG,B,D]f ga b2 | be [fD,F,A,]e fg | af af [gG,B,D]f | ga ge de |
[g2G,2B,2D2] ga ge | de [gG,B,D]f ga | b2 b2 [d'2D,2F,2A,2] | d'2 e2<f2 |
[g2G,2B,2D2]>a2 g2 | ef [g2G,2B,2D2] ga | ge de [gG,B,D]f | ga b2 be |
[fD,F,A,]e fg af | af [gG,B,D]f ga | ge de [g2G,2B,2D2] | ga ge de |
[gG,B,D]f ga b2 | b2 [d'2D,2F,2A,2] d'2 | e2<f2 [g3G,3B,3D3] |a g2 GE |
[DG,B,D]B, DG DB, | DG [EC,E,G,][AD,F,A,] BA | FD FA cB | GE [DG,B,DG,B,D]B, DG |
DB, DG [EC,E,G,][AD,F,A,] | BA FD FA | cB GE [DG,B,DG,B,D]B, | DG DB, DG |
[EC,E,G,][AD,F,A,] BA FD | FA cB GE | [DG,B,DG,B,D]B, DG DB, | DG [EC,E,G,][AD,F,A,] BA |
FD FA c[BG,B,D] |


